findly-builder/apps/searchassist/src/assets/images/icons/callback.svg

<svg width="40" height="40" viewBox="0 0 40 40" fill="none" xmlns="http://www.w3.org/2000/svg">
<g clip-path="url(#clip0)">
<path d="M36.8751 33.75C36.1845 33.75 35.6251 33.1906 35.6251 32.5C35.6251 31.8094 36.1845 31.25 36.8751 31.25H37.8126C39.0157 31.25 40.0001 30.2656 40.0001 29.0625C40.0001 27.8594 39.0157 26.875 37.8126 26.875H31.2501C30.387 26.875 29.6876 26.1756 29.6876 25.3125C29.6876 24.4494 30.387 23.75 31.2501 23.75H36.2501C37.2814 23.75 38.1251 22.9062 38.1251 21.875C38.1251 20.8438 37.2814 20 36.2501 20H26.2501V16.25H37.5001C38.9595 16.25 40.1376 14.9825 39.987 13.4937C39.8564 12.1962 38.6857 11.25 37.382 11.25H36.8751C36.1845 11.25 35.6251 10.6906 35.6251 10C35.6251 9.30937 36.1845 8.75 36.8751 8.75H37.0982C37.9157 8.75 38.6601 8.16188 38.742 7.34875C38.8357 6.41313 38.1039 5.625 37.1876 5.625H27.8126C27.2951 5.625 26.8751 5.205 26.8751 4.6875C26.8751 4.17 27.2951 3.75 27.8126 3.75H30.2232C31.0407 3.75 31.7851 3.16188 31.867 2.34875C31.9607 1.41312 31.2289 0.625 30.3126 0.625H9.777C8.9595 0.625 8.21512 1.21313 8.13325 2.02625C8.0395 2.96187 8.77137 3.75 9.68762 3.75H11.8751C12.5657 3.75 13.1251 4.30938 13.1251 5C13.1251 5.69063 12.5657 6.25 11.8751 6.25H3.86825C2.5645 6.25 1.3945 7.19625 1.26325 8.49375C1.11262 9.9825 2.29075 11.25 3.75012 11.25H5.31262C6.52075 11.25 7.50012 12.2294 7.50012 13.4375C7.50012 14.6456 6.52075 15.625 5.31262 15.625H3.24325C1.9395 15.625 0.769498 16.5712 0.638248 17.8687C0.487623 19.3575 1.66575 20.625 3.12512 20.625H13.7501V27.5H3.75012C2.71887 27.5 1.87512 28.3438 1.87512 29.375C1.87512 30.4062 2.71887 31.25 3.75012 31.25C4.44075 31.25 5.00012 31.8094 5.00012 32.5C5.00012 33.1906 4.44075 33.75 3.75012 33.75H2.61825C1.3145 33.75 0.144498 34.6963 0.0132475 35.9938C-0.137377 37.4825 1.04075 38.75 2.50012 38.75H36.757C38.0607 38.75 39.2307 37.8037 39.362 36.5062C39.5126 35.0175 38.3345 33.75 36.8751 33.75Z" fill="url(#paint0_radial)"/>
<path d="M31.875 7.5H8.75C7.36937 7.5 6.25 8.61937 6.25 10V32.5C6.25 33.8806 7.36937 35 8.75 35H31.875C33.2556 35 34.375 33.8806 34.375 32.5V10C34.375 8.61937 33.2556 7.5 31.875 7.5Z" fill="url(#paint1_linear)"/>
<path d="M6.25 10V13.75H34.375V10C34.375 8.61937 33.2556 7.5 31.875 7.5H8.75C7.36937 7.5 6.25 8.61937 6.25 10Z" fill="url(#paint2_linear)"/>
<path d="M18.75 11.875H30.625C31.3125 11.875 31.875 11.3125 31.875 10.625C31.875 9.9375 31.3125 9.375 30.625 9.375H18.75C18.0625 9.375 17.5 9.9375 17.5 10.625C17.5 11.3125 18.0625 11.875 18.75 11.875Z" fill="#F1FCFF"/>
<path d="M10 11.875C10.6875 11.875 11.25 11.3125 11.25 10.625C11.25 9.9375 10.6875 9.375 10 9.375C9.3125 9.375 8.75 9.9375 8.75 10.625C8.75 11.3125 9.3125 11.875 10 11.875Z" fill="url(#paint3_linear)"/>
<path d="M14.375 11.875C15.0625 11.875 15.625 11.3125 15.625 10.625C15.625 9.9375 15.0625 9.375 14.375 9.375C13.6875 9.375 13.125 9.9375 13.125 10.625C13.125 11.3125 13.6875 11.875 14.375 11.875Z" fill="url(#paint4_linear)"/>
<path d="M24.2458 29.2499H27.4319C28.9647 29.2499 29.8888 27.4598 28.7496 26.3061L22.5677 20.0436L22.5677 20.0436C21.8431 19.3096 20.6575 19.3099 19.9325 20.0434L19.9323 20.0436L13.7505 26.3061C13.7505 26.3061 13.7504 26.3061 13.7504 26.3061C13.2016 26.862 13.1315 27.6101 13.4073 28.2081C13.6815 28.8023 14.2922 29.2435 15.0678 29.2436L15.0673 29.2436L15.0681 28.7436V29.2436L24.2458 29.2499ZM24.2458 29.2499C24.208 31.408 23.9092 33.5204 22.9159 35.1346C21.8146 36.9246 19.9153 38.0182 16.872 37.9999H16.872C16.1217 37.9953 14.7016 37.8641 13.3417 37.6606L13.3416 37.6606C12.8654 37.5893 12.6233 37.1901 12.6307 36.8224C12.638 36.4571 12.8917 36.0699 13.3636 36.0084L13.364 36.0084C15.2119 35.7694 16.3931 35.0769 17.1357 33.9481C17.8425 32.8739 18.1969 31.3389 18.2445 29.249M24.2458 29.2499L18.2445 29.249M18.2445 29.249L18.7446 29.2499C18.6459 33.6853 17.1941 36.0172 13.4281 36.5043C13.0394 36.5549 13.0275 37.108 13.4156 37.1661C14.765 37.368 16.1588 37.4955 16.875 37.4999L18.2445 29.249ZM18.2445 29.249C18.2482 29.086 18.25 28.9197 18.25 28.7499H18.75M18.2445 29.249L18.75 28.7499M18.75 28.7499C18.75 28.7769 18.75 28.8039 18.7499 28.8308L18.75 28.7499Z" fill="url(#paint5_linear)" stroke="#E1FBFF"/>
</g>
<defs>
<radialGradient id="paint0_radial" cx="0" cy="0" r="1" gradientUnits="userSpaceOnUse" gradientTransform="translate(20.0002 19.6875) scale(19.3753 19.719)">
<stop stop-color="#AFEEFF"/>
<stop offset="0.193" stop-color="#BBF1FF"/>
<stop offset="0.703" stop-color="#D7F8FF"/>
<stop offset="1" stop-color="#E1FAFF"/>
</radialGradient>
<linearGradient id="paint1_linear" x1="20.3125" y1="46.3088" x2="20.3125" y2="6.58688" gradientUnits="userSpaceOnUse">
<stop stop-color="#29A1EC"/>
<stop offset="1" stop-color="#518AE2"/>
</linearGradient>
<linearGradient id="paint2_linear" x1="20.3125" y1="5.70875" x2="20.3125" y2="14.5294" gradientUnits="userSpaceOnUse">
<stop stop-color="#A4A4A4"/>
<stop offset="0.409" stop-color="#8D8D8D"/>
<stop offset="1" stop-color="#6F6F6F"/>
</linearGradient>
<linearGradient id="paint3_linear" x1="10" y1="13.8813" x2="10" y2="8.45375" gradientUnits="userSpaceOnUse">
<stop stop-color="#FEAA53"/>
<stop offset="0.612" stop-color="#FFCD49"/>
<stop offset="1" stop-color="#FFDE44"/>
</linearGradient>
<linearGradient id="paint4_linear" x1="14.375" y1="9.73312" x2="14.375" y2="14.9375" gradientUnits="userSpaceOnUse">
<stop stop-color="#42D778"/>
<stop offset="0.428" stop-color="#3DCA76"/>
<stop offset="1" stop-color="#34B171"/>
</linearGradient>
<linearGradient id="paint5_linear" x1="20.94" y1="43.1511" x2="20.94" y2="18.2774" gradientUnits="userSpaceOnUse">
<stop stop-color="white"/>
<stop offset="1" stop-color="white"/>
</linearGradient>
<clipPath id="clip0">
<rect width="40" height="40" fill="white"/>
</clipPath>
</defs>
</svg>

<svg width="40" height="40" fill="none" xmlns="http://www.w3.org/2000/svg"><g clip-path="url(#a)"><path d="M36.875 33.75a1.25 1.25 0 1 1 0-2.5h.938A2.194 2.194 0 0 0 40 29.062a2.194 2.194 0 0 0-2.187-2.187H31.25a1.562 1.562 0 1 1 0-3.125h5a1.88 1.88 0 0 0 1.875-1.875A1.88 1.88 0 0 0 36.25 20h-10v-3.75H37.5a2.506 2.506 0 0 0 2.487-2.756c-.13-1.298-1.301-2.244-2.605-2.244h-.507a1.25 1.25 0 1 1 0-2.5h.223c.818 0 1.562-.588 1.644-1.401a1.563 1.563 0 0 0-1.554-1.724h-9.375a.938.938 0 0 1 0-1.875h2.41c.818 0 1.562-.588 1.644-1.401A1.563 1.563 0 0 0 30.313.625H9.777c-.817 0-1.562.588-1.644 1.401A1.563 1.563 0 0 0 9.688 3.75h2.187a1.25 1.25 0 1 1 0 2.5H3.868c-1.304 0-2.474.946-2.605 2.244A2.506 2.506 0 0 0 3.75 11.25h1.563a2.188 2.188 0 0 1 0 4.375h-2.07c-1.303 0-2.474.946-2.605 2.244a2.506 2.506 0 0 0 2.487 2.756H13.75V27.5h-10a1.88 1.88 0 0 0-1.875 1.875A1.88 1.88 0 0 0 3.75 31.25a1.25 1.25 0 1 1 0 2.5H2.618c-1.303 0-2.474.946-2.605 2.244A2.506 2.506 0 0 0 2.5 38.75h34.257c1.304 0 2.474-.946 2.605-2.244a2.506 2.506 0 0 0-2.487-2.756Z" fill="url(#b)"/><path d="M31.875 7.5H8.75a2.5 2.5 0 0 0-2.5 2.5v22.5a2.5 2.5 0 0 0 2.5 2.5h23.125a2.5 2.5 0 0 0 2.5-2.5V10a2.5 2.5 0 0 0-2.5-2.5Z" fill="url(#c)"/><path d="M6.25 10v3.75h28.125V10a2.5 2.5 0 0 0-2.5-2.5H8.75a2.5 2.5 0 0 0-2.5 2.5Z" fill="url(#d)"/><path d="M18.75 11.875h11.875c.688 0 1.25-.563 1.25-1.25 0-.688-.563-1.25-1.25-1.25H18.75c-.688 0-1.25.563-1.25 1.25 0 .688.563 1.25 1.25 1.25Z" fill="#F1FCFF"/><path d="M10 11.875c.688 0 1.25-.563 1.25-1.25 0-.688-.563-1.25-1.25-1.25-.688 0-1.25.563-1.25 1.25 0 .688.563 1.25 1.25 1.25Z" fill="url(#e)"/><path d="M14.375 11.875c.688 0 1.25-.563 1.25-1.25 0-.688-.563-1.25-1.25-1.25-.688 0-1.25.563-1.25 1.25 0 .688.563 1.25 1.25 1.25Z" fill="url(#f)"/><path d="M24.246 29.25h3.186c1.533 0 2.457-1.79 1.318-2.944l-6.182-6.262a1.853 1.853 0 0 0-2.636 0l-6.181 6.262a1.672 1.672 0 0 0-.344 1.902 1.8 1.8 0 0 0 1.66 1.036l.001-.5v.5l9.178.006Zm0 0c-.038 2.158-.337 4.27-1.33 5.885-1.101 1.79-3 2.883-6.044 2.865-.75-.005-2.17-.136-3.53-.34a.822.822 0 0 1-.711-.838.83.83 0 0 1 .733-.814c1.848-.239 3.03-.931 3.772-2.06.707-1.074 1.06-2.61 1.108-4.699m6.002 0h-6.002m0 0h.5c-.098 4.436-1.55 6.768-5.316 7.255-.389.05-.4.604-.012.662 1.349.202 2.743.33 3.459.334l1.37-8.251Zm0 0c.004-.163.006-.33.006-.5h.5m-.506.5.506-.5m0 0v.082-.081Z" fill="url(#g)" stroke="#E1FBFF"/></g><defs><linearGradient id="c" x1="20.313" y1="46.309" x2="20.313" y2="6.587" gradientUnits="userSpaceOnUse"><stop stop-color="#29A1EC"/><stop offset="1" stop-color="#518AE2"/></linearGradient><linearGradient id="d" x1="20.313" y1="5.709" x2="20.313" y2="14.529" gradientUnits="userSpaceOnUse"><stop stop-color="#A4A4A4"/><stop offset=".409" stop-color="#8D8D8D"/><stop offset="1" stop-color="#6F6F6F"/></linearGradient><linearGradient id="e" x1="10" y1="13.881" x2="10" y2="8.454" gradientUnits="userSpaceOnUse"><stop stop-color="#FEAA53"/><stop offset=".612" stop-color="#FFCD49"/><stop offset="1" stop-color="#FFDE44"/></linearGradient><linearGradient id="f" x1="14.375" y1="9.733" x2="14.375" y2="14.938" gradientUnits="userSpaceOnUse"><stop stop-color="#42D778"/><stop offset=".428" stop-color="#3DCA76"/><stop offset="1" stop-color="#34B171"/></linearGradient><linearGradient id="g" x1="20.94" y1="43.151" x2="20.94" y2="18.277" gradientUnits="userSpaceOnUse"><stop stop-color="#fff"/><stop offset="1" stop-color="#fff"/></linearGradient><radialGradient id="b" cx="0" cy="0" r="1" gradientUnits="userSpaceOnUse" gradientTransform="matrix(19.3753 0 0 19.719 20 19.688)"><stop stop-color="#AFEEFF"/><stop offset=".193" stop-color="#BBF1FF"/><stop offset=".703" stop-color="#D7F8FF"/><stop offset="1" stop-color="#E1FAFF"/></radialGradient><clipPath id="a"><path fill="#fff" d="M0 0h40v40H0z"/></clipPath></defs></svg>
